static/icons-fill/pollen-flower.svg

<svg viewBox="0 0 128 128" fill="none" xmlns="http://www.w3.org/2000/svg">
<g id="pollen-flower" clip-path="url(#clip0_2038_4182)">
<g id="Flower">
<path id="Leaves" d="M54.1968 46.4963C49.5877 44.1279 43.9273 45.8402 41.3175 50.5C38.7077 55.1598 40.0995 61.0693 44.3937 64C40.0995 66.9307 38.7077 72.8401 41.3175 77.5C43.9273 82.1599 49.5877 83.8721 54.1968 81.5037C54.5118 86.8028 58.7804 91 64 91C69.2196 91 73.4882 86.8028 73.8032 81.5037C78.4123 83.8721 84.0727 82.1598 86.6825 77.5C89.2923 72.8401 87.9005 66.9307 83.6063 64C87.9005 61.0693 89.2923 55.1598 86.6825 50.5C84.0727 45.8402 78.4123 44.1279 73.8032 46.4963C73.4882 41.1972 69.2196 37 64 37C58.7804 37 54.5118 41.1972 54.1968 46.4963Z" fill="url(#paint0_linear_2038_4182)"/>
<path id="Leaves (Stroke)" fill-rule="evenodd" clip-rule="evenodd" d="M54.1968 46.4963C54.2076 46.3154 54.2229 46.1359 54.2428 45.9577C54.2622 45.7836 54.2858 45.6108 54.3137 45.4395C55.0922 40.6499 59.1326 37 64 37C68.8674 37 72.9078 40.6499 73.6863 45.4395C73.7142 45.6108 73.7378 45.7836 73.7572 45.9577C73.7771 46.1359 73.7924 46.3154 73.8032 46.4963C73.9643 46.4135 74.1267 46.3357 74.2902 46.2628C74.4501 46.1915 74.6112 46.125 74.7731 46.0631C79.1805 44.3788 84.2531 46.1624 86.6825 50.5C89.1153 54.8438 88.0709 60.2736 84.4396 63.364C84.3088 63.4753 84.1746 63.5836 84.0372 63.6887C83.897 63.7958 83.7534 63.8997 83.6063 64C83.7534 64.1003 83.897 64.2042 84.0372 64.3113C84.1746 64.4164 84.3088 64.5247 84.4396 64.636C88.0709 67.7264 89.1153 73.1562 86.6825 77.5C84.2532 81.8376 79.1806 83.6212 74.7731 81.9369C74.6112 81.875 74.4501 81.8085 74.2902 81.7372C74.1267 81.6643 73.9643 81.5865 73.8032 81.5037C73.7924 81.6846 73.7771 81.8641 73.7572 82.0423C73.7378 82.2164 73.7142 82.3892 73.6863 82.5605C72.9078 87.3501 68.8674 91 64 91C59.1326 91 55.0922 87.3501 54.3137 82.5605C54.2858 82.3892 54.2622 82.2164 54.2428 82.0423C54.2229 81.8641 54.2076 81.6846 54.1968 81.5037C54.0357 81.5865 53.8733 81.6643 53.7098 81.7372C53.5499 81.8085 53.3888 81.875 53.2269 81.9369C48.8194 83.6212 43.7468 81.8376 41.3175 77.5C38.8847 73.1562 39.9291 67.7264 43.5604 64.636C43.6912 64.5247 43.8254 64.4164 43.9628 64.3113C44.103 64.2042 44.2466 64.1003 44.3937 64C44.2466 63.8997 44.103 63.7958 43.9628 63.6887C43.8254 63.5836 43.6912 63.4753 43.5604 63.364C39.9291 60.2736 38.8847 54.8438 41.3175 50.5C43.7468 46.1624 48.8194 44.3788 53.2269 46.0631C53.3888 46.125 53.5499 46.1915 53.7098 46.2628C53.8733 46.3357 54.0357 46.4135 54.1968 46.4963ZM45.5181 64.4433L44.9574 64.826C41.0977 67.4601 39.8294 72.7965 42.19 77.0114C44.5424 81.2117 49.6198 82.7313 53.7398 80.6143L54.2378 80.3584L63.1458 63.5442L45.5181 64.4433ZM64 64.068L55.1546 80.7639L55.1951 81.4444C55.4804 86.2447 59.3388 90 64 90C68.6612 90 72.5196 86.2447 72.8049 81.4444L72.8454 80.7639L64 64.068ZM73.7622 80.3584L64.8542 63.5442L82.4819 64.4433L83.0426 64.826C86.9023 67.4601 88.1706 72.7965 85.81 77.0114C83.4576 81.2117 78.3802 82.7313 74.2602 80.6143L73.7622 80.3584ZM82.6383 63.45L64.8531 62.5429L73.679 47.6843L74.2602 47.3857C78.3802 45.2687 83.4576 46.7883 85.81 50.9886C88.1706 55.2035 86.9023 60.5399 83.0426 63.174L82.6383 63.45ZM72.8396 47.1393L64 62.0209L55.1604 47.1393L55.1951 46.5556C55.4804 41.7553 59.3388 38 64 38C68.6612 38 72.5196 41.7553 72.8049 46.5556L72.8396 47.1393ZM54.321 47.6843L63.1469 62.5429L45.3617 63.45L44.9574 63.174C41.0977 60.5399 39.8294 55.2035 42.19 50.9886C44.5424 46.7883 49.6198 45.2687 53.7398 47.3857L54.321 47.6843Z" fill="#A78BFA"/>
<circle id="Center" cx="64" cy="63" r="5.5" fill="url(#paint1_linear_2038_4182)" stroke="#F59E0B"/>
</g>
<g id="Pollen">
<path id="Pollen 7" d="M90 47.5C91.3807 47.5 92.5 48.6193 92.5 50C92.5 51.3807 91.3807 52.5 90 52.5C88.6193 52.5 87.5 51.3807 87.5 50C87.5 48.6193 88.6193 47.5 90 47.5Z" fill="url(#paint2_linear_2038_4182)" stroke="#FACC15"><animateTransform attributeName="transform" type="translate" values="0 0;8 -4" dur="3s" begin="0s" repeatCount="indefinite" calcMode="spline" keySplines=".42 0 .58 1"/><animate attributeName="opacity" values="0;1;1;0" dur="3s" begin="0s" repeatCount="indefinite" keyTimes="0;0.2;0.8;1"/></path>
<path id="Pollen 6" d="M80 38.5C80.8284 38.5 81.5 39.1716 81.5 40C81.5 40.8284 80.8284 41.5 80 41.5C79.1716 41.5 78.5 40.8284 78.5 40C78.5 39.1716 79.1716 38.5 80 38.5Z" fill="url(#paint3_linear_2038_4182)" stroke="#FACC15" opacity="0"><animateTransform attributeName="transform" type="translate" values="0 0;8 -4" dur="3s" begin="0.35s" repeatCount="indefinite" calcMode="spline" keySplines=".42 0 .58 1"/><animate attributeName="opacity" values="0;1;1;0" dur="3s" begin="0.35s" repeatCount="indefinite" keyTimes="0;0.2;0.8;1"/></path>
<path id="Pollen 5" d="M74 44.5C75.933 44.5 77.5 46.067 77.5 48C77.5 49.933 75.933 51.5 74 51.5C72.067 51.5 70.5 49.933 70.5 48C70.5 46.067 72.067 44.5 74 44.5Z" fill="url(#paint4_linear_2038_4182)" stroke="#FACC15" opacity="0"><animateTransform attributeName="transform" type="translate" values="0 0;8 -4" dur="3s" begin="0.7s" repeatCount="indefinite" calcMode="spline" keySplines=".42 0 .58 1"/><animate attributeName="opacity" values="0;1;1;0" dur="3s" begin="0.7s" repeatCount="indefinite" keyTimes="0;0.2;0.8;1"/></path>
<path id="Pollen 4" d="M64 35.5C65.3807 35.5 66.5 36.6193 66.5 38C66.5 39.3807 65.3807 40.5 64 40.5C62.6193 40.5 61.5 39.3807 61.5 38C61.5 36.6193 62.6193 35.5 64 35.5Z" fill="url(#paint5_linear_2038_4182)" stroke="#FACC15" opacity="0"><animateTransform attributeName="transform" type="translate" values="0 0;8 -4" dur="3s" begin="1.0499999999999998s" repeatCount="indefinite" calcMode="spline" keySplines=".42 0 .58 1"/><animate attributeName="opacity" values="0;1;1;0" dur="3s" begin="1.0499999999999998s" repeatCount="indefinite" keyTimes="0;0.2;0.8;1"/></path>
<path id="Pollen 3" d="M54 44.5C55.933 44.5 57.5 46.067 57.5 48C57.5 49.933 55.933 51.5 54 51.5C52.067 51.5 50.5 49.933 50.5 48C50.5 46.067 52.067 44.5 54 44.5Z" fill="url(#paint6_linear_2038_4182)" stroke="#FACC15" opacity="0"><animateTransform attributeName="transform" type="translate" values="0 0;8 -4" dur="3s" begin="1.4s" repeatCount="indefinite" calcMode="spline" keySplines=".42 0 .58 1"/><animate attributeName="opacity" values="0;1;1;0" dur="3s" begin="1.4s" repeatCount="indefinite" keyTimes="0;0.2;0.8;1"/></path>
<path id="Pollen 2" d="M48 38.5C48.8284 38.5 49.5 39.1716 49.5 40C49.5 40.8284 48.8284 41.5 48 41.5C47.1716 41.5 46.5 40.8284 46.5 40C46.5 39.1716 47.1716 38.5 48 38.5Z" fill="url(#paint7_linear_2038_4182)" stroke="#FACC15" opacity="0"><animateTransform attributeName="transform" type="translate" values="0 0;8 -4" dur="3s" begin="1.75s" repeatCount="indefinite" calcMode="spline" keySplines=".42 0 .58 1"/><animate attributeName="opacity" values="0;1;1;0" dur="3s" begin="1.75s" repeatCount="indefinite" keyTimes="0;0.2;0.8;1"/></path>
<path id="Pollen 1" d="M38 47.5C39.3807 47.5 40.5 48.6193 40.5 50C40.5 51.3807 39.3807 52.5 38 52.5C36.6193 52.5 35.5 51.3807 35.5 50C35.5 48.6193 36.6193 47.5 38 47.5Z" fill="url(#paint8_linear_2038_4182)" stroke="#FACC15" opacity="0"><animateTransform attributeName="transform" type="translate" values="0 0;8 -4" dur="3s" begin="2.0999999999999996s" repeatCount="indefinite" calcMode="spline" keySplines=".42 0 .58 1"/><animate attributeName="opacity" values="0;1;1;0" dur="3s" begin="2.0999999999999996s" repeatCount="indefinite" keyTimes="0;0.2;0.8;1"/></path>
</g>
</g>
<defs>
<linearGradient id="paint0_linear_2038_4182" x1="64" y1="37" x2="64" y2="91" gradientUnits="userSpaceOnUse">
<stop stop-color="#C4B5FD"/>
<stop offset="1" stop-color="#A78BFA"/>
</linearGradient>
<linearGradient id="paint1_linear_2038_4182" x1="64" y1="57" x2="64" y2="69" gradientUnits="userSpaceOnUse">
<stop stop-color="#FBBF24"/>
<stop offset="1" stop-color="#F59E0B"/>
</linearGradient>
<linearGradient id="paint2_linear_2038_4182" x1="90" y1="47.5132" x2="90" y2="51.4605" gradientUnits="userSpaceOnUse">
<stop stop-color="#FDE047"/>
<stop offset="1" stop-color="#FACC15"/>
</linearGradient>
<linearGradient id="paint3_linear_2038_4182" x1="80" y1="38.3421" x2="80" y2="40.9737" gradientUnits="userSpaceOnUse">
<stop stop-color="#FDE047"/>
<stop offset="1" stop-color="#FACC15"/>
</linearGradient>
<linearGradient id="paint4_linear_2038_4182" x1="74" y1="44.6842" x2="74" y2="49.9474" gradientUnits="userSpaceOnUse">
<stop stop-color="#FDE047"/>
<stop offset="1" stop-color="#FACC15"/>
</linearGradient>
<linearGradient id="paint5_linear_2038_4182" x1="64" y1="35.5132" x2="64" y2="39.4605" gradientUnits="userSpaceOnUse">
<stop stop-color="#FDE047"/>
<stop offset="1" stop-color="#FACC15"/>
</linearGradient>
<linearGradient id="paint6_linear_2038_4182" x1="54" y1="44.6842" x2="54" y2="49.9474" gradientUnits="userSpaceOnUse">
<stop stop-color="#FDE047"/>
<stop offset="1" stop-color="#FACC15"/>
</linearGradient>
<linearGradient id="paint7_linear_2038_4182" x1="48" y1="38.3421" x2="48" y2="40.9737" gradientUnits="userSpaceOnUse">
<stop stop-color="#FDE047"/>
<stop offset="1" stop-color="#FACC15"/>
</linearGradient>
<linearGradient id="paint8_linear_2038_4182" x1="38" y1="47.5132" x2="38" y2="51.4605" gradientUnits="userSpaceOnUse">
<stop stop-color="#FDE047"/>
<stop offset="1" stop-color="#FACC15"/>
</linearGradient>
<clipPath id="clip0_2038_4182">
<rect width="128" height="128" fill="white"/>
</clipPath>
</defs>
</svg>

<svg xmlns="http://www.w3.org/2000/svg" fill="none" viewBox="0 0 128 128"><g id="pollen-flower__pollen-flower" clip-path="url(#pollen-flower__clip0_3104_25697)"><g id="pollen-flower__Flower"><path id="pollen-flower__Leaves" fill="url(#pollen-flower__paint0_linear_3104_25697)" d="M54.197 46.496c-4.61-2.368-10.27-.656-12.88 4.004S40.1 61.07 44.395 64c-4.294 2.93-5.686 8.84-3.076 13.5s8.27 6.372 12.879 4.004C54.512 86.803 58.78 91 64 91s9.488-4.197 9.803-9.496c4.61 2.368 10.27.656 12.88-4.004S87.9 66.93 83.606 64c4.294-2.93 5.686-8.84 3.077-13.5s-8.27-6.372-12.88-4.004C73.488 41.197 69.22 37 64 37s-9.488 4.197-9.803 9.496"/><path id="pollen-flower__Leaves (Stroke)" fill="#a78bfa" fill-rule="evenodd" d="M54.197 46.496a11 11 0 0 1 .117-1.056C55.092 40.65 59.133 37 64 37s8.908 3.65 9.686 8.44a10 10 0 0 1 .117 1.056 10 10 0 0 1 .97-.433c4.407-1.684 9.48.1 11.91 4.437 2.432 4.344 1.388 9.774-2.243 12.864a10 10 0 0 1-.834.636 10 10 0 0 1 .834.636c3.63 3.09 4.675 8.52 2.243 12.864-2.43 4.338-7.502 6.121-11.91 4.437a10 10 0 0 1-.97-.433 11 11 0 0 1-.117 1.056C72.908 87.35 68.867 91 64 91s-8.908-3.65-9.686-8.44a10 10 0 0 1-.117-1.056 10 10 0 0 1-.97.433c-4.408 1.684-9.48-.1-11.91-4.437-2.432-4.344-1.388-9.774 2.243-12.864a10 10 0 0 1 .834-.636 10 10 0 0 1-.834-.636c-3.63-3.09-4.675-8.52-2.242-12.864 2.429-4.338 7.501-6.121 11.909-4.437a10 10 0 0 1 .97.433m-8.679 17.947-.56.383c-3.86 2.634-5.129 7.97-2.768 12.185 2.352 4.2 7.43 5.72 11.55 3.603l.498-.256 8.908-16.814zM64 64.068l-8.845 16.696.04.68C55.48 86.244 59.34 90 64 90s8.52-3.755 8.805-8.556l.04-.68zm9.762 16.29-8.908-16.814 17.628.9.56.382c3.86 2.634 5.129 7.97 2.768 12.185-2.352 4.2-7.43 5.72-11.55 3.603zm8.876-16.908-17.785-.907 8.826-14.859.581-.298c4.12-2.117 9.198-.598 11.55 3.603 2.36 4.215 1.092 9.55-2.767 12.185zM72.84 47.14 64 62.02l-8.84-14.88.035-.584C55.48 41.756 59.34 38 64 38s8.52 3.755 8.805 8.556zm-18.519.544 8.826 14.859-17.785.907-.405-.276c-3.86-2.634-5.128-7.97-2.767-12.185 2.352-4.2 7.43-5.72 11.55-3.603z" clip-rule="evenodd"/><circle id="pollen-flower__Center" cx="64" cy="63" r="5.5" fill="url(#pollen-flower__paint1_linear_3104_25697)" stroke="#f59e0b"/></g><g id="pollen-flower__Pollen"><path id="pollen-flower__Pollen 7" fill="url(#pollen-flower__paint2_linear_3104_25697)" stroke="#facc15" d="M90 47.5a2.5 2.5 0 1 1 0 5 2.5 2.5 0 0 1 0-5Z"><animateTransform attributeName="transform" begin="0s" calcMode="spline" dur="3s" keySplines=".42 0 .58 1" repeatCount="indefinite" type="translate" values="0 0;8 -4"/><animate attributeName="opacity" begin="0s" dur="3s" keyTimes="0;0.2;0.8;1" repeatCount="indefinite" values="0;1;1;0"/></path><path id="pollen-flower__Pollen 6" fill="url(#pollen-flower__paint3_linear_3104_25697)" stroke="#facc15" d="M80 38.5a1.5 1.5 0 1 1 0 3 1.5 1.5 0 0 1 0-3Z"><animateTransform attributeName="transform" begin="-2.65s" calcMode="spline" dur="3s" keySplines=".42 0 .58 1" repeatCount="indefinite" type="translate" values="0 0;8 -4"/><animate attributeName="opacity" begin="-2.65s" dur="3s" keyTimes="0;0.2;0.8;1" repeatCount="indefinite" values="0;1;1;0"/></path><path id="pollen-flower__Pollen 5" fill="url(#pollen-flower__paint4_linear_3104_25697)" stroke="#facc15" d="M74 44.5a3.5 3.5 0 1 1 0 7 3.5 3.5 0 0 1 0-7Z"><animateTransform attributeName="transform" begin="-2.3s" calcMode="spline" dur="3s" keySplines=".42 0 .58 1" repeatCount="indefinite" type="translate" values="0 0;8 -4"/><animate attributeName="opacity" begin="-2.3s" dur="3s" keyTimes="0;0.2;0.8;1" repeatCount="indefinite" values="0;1;1;0"/></path><path id="pollen-flower__Pollen 4" fill="url(#pollen-flower__paint5_linear_3104_25697)" stroke="#facc15" d="M64 35.5a2.5 2.5 0 1 1 0 5 2.5 2.5 0 0 1 0-5Z"><animateTransform attributeName="transform" begin="-1.9500000000000002s" calcMode="spline" dur="3s" keySplines=".42 0 .58 1" repeatCount="indefinite" type="translate" values="0 0;8 -4"/><animate attributeName="opacity" begin="-1.9500000000000002s" dur="3s" keyTimes="0;0.2;0.8;1" repeatCount="indefinite" values="0;1;1;0"/></path><path id="pollen-flower__Pollen 3" fill="url(#pollen-flower__paint6_linear_3104_25697)" stroke="#facc15" d="M54 44.5a3.5 3.5 0 1 1 0 7 3.5 3.5 0 0 1 0-7Z"><animateTransform attributeName="transform" begin="-1.6s" calcMode="spline" dur="3s" keySplines=".42 0 .58 1" repeatCount="indefinite" type="translate" values="0 0;8 -4"/><animate attributeName="opacity" begin="-1.6s" dur="3s" keyTimes="0;0.2;0.8;1" repeatCount="indefinite" values="0;1;1;0"/></path><path id="pollen-flower__Pollen 2" fill="url(#pollen-flower__paint7_linear_3104_25697)" stroke="#facc15" d="M48 38.5a1.5 1.5 0 1 1 0 3 1.5 1.5 0 0 1 0-3Z"><animateTransform attributeName="transform" begin="-1.25s" calcMode="spline" dur="3s" keySplines=".42 0 .58 1" repeatCount="indefinite" type="translate" values="0 0;8 -4"/><animate attributeName="opacity" begin="-1.25s" dur="3s" keyTimes="0;0.2;0.8;1" repeatCount="indefinite" values="0;1;1;0"/></path><path id="pollen-flower__Pollen 1" fill="url(#pollen-flower__paint8_linear_3104_25697)" stroke="#facc15" d="M38 47.5a2.5 2.5 0 1 1 0 5 2.5 2.5 0 0 1 0-5Z"><animateTransform attributeName="transform" begin="-0.9000000000000004s" calcMode="spline" dur="3s" keySplines=".42 0 .58 1" repeatCount="indefinite" type="translate" values="0 0;8 -4"/><animate attributeName="opacity" begin="-0.9000000000000004s" dur="3s" keyTimes="0;0.2;0.8;1" repeatCount="indefinite" values="0;1;1;0"/></path></g></g><defs><linearGradient id="pollen-flower__paint0_linear_3104_25697" x1="64" x2="64" y1="37" y2="91" gradientUnits="userSpaceOnUse"><stop stop-color="#c4b5fd"/><stop offset="1" stop-color="#a78bfa"/></linearGradient><linearGradient id="pollen-flower__paint1_linear_3104_25697" x1="64" x2="64" y1="57" y2="69" gradientUnits="userSpaceOnUse"><stop stop-color="#fbbf24"/><stop offset="1" stop-color="#f59e0b"/></linearGradient><linearGradient id="pollen-flower__paint2_linear_3104_25697" x1="90" x2="90" y1="47.513" y2="51.461" gradientUnits="userSpaceOnUse"><stop stop-color="#fde047"/><stop offset="1" stop-color="#facc15"/></linearGradient><linearGradient id="pollen-flower__paint3_linear_3104_25697" x1="80" x2="80" y1="38.342" y2="40.974" gradientUnits="userSpaceOnUse"><stop stop-color="#fde047"/><stop offset="1" stop-color="#facc15"/></linearGradient><linearGradient id="pollen-flower__paint4_linear_3104_25697" x1="74" x2="74" y1="44.684" y2="49.947" gradientUnits="userSpaceOnUse"><stop stop-color="#fde047"/><stop offset="1" stop-color="#facc15"/></linearGradient><linearGradient id="pollen-flower__paint5_linear_3104_25697" x1="64" x2="64" y1="35.513" y2="39.461" gradientUnits="userSpaceOnUse"><stop stop-color="#fde047"/><stop offset="1" stop-color="#facc15"/></linearGradient><linearGradient id="pollen-flower__paint6_linear_3104_25697" x1="54" x2="54" y1="44.684" y2="49.947" gradientUnits="userSpaceOnUse"><stop stop-color="#fde047"/><stop offset="1" stop-color="#facc15"/></linearGradient><linearGradient id="pollen-flower__paint7_linear_3104_25697" x1="48" x2="48" y1="38.342" y2="40.974" gradientUnits="userSpaceOnUse"><stop stop-color="#fde047"/><stop offset="1" stop-color="#facc15"/></linearGradient><linearGradient id="pollen-flower__paint8_linear_3104_25697" x1="38" x2="38" y1="47.513" y2="51.461" gradientUnits="userSpaceOnUse"><stop stop-color="#fde047"/><stop offset="1" stop-color="#facc15"/></linearGradient><clipPath id="pollen-flower__clip0_3104_25697"><rect width="128" height="128" fill="#fff"/></clipPath></defs></svg>
